X: 13
T: Monaghan, The
Z: Andrew Newland
S: https://thesession.org/tunes/67#setting47012
R: jig
M: 6/8
L: 1/8
K: Edor
|:BGE F2E|BGE FGA|BGE F2E|AFD FGA|
BGE F2E|BGE FGA|dcB A2G|FDF AFD:|
|:EGB efg|fed edc|DFA dAG|FDF AFD|
EGB efg|fed edc|dcB A2G|FDF AFD:|
|:g2e efe|geg bge|g2e efg|fdf afd|
g2e efe|geg bge|dcB A2G|FDF AFD:|
|:EGB eBG|BGE AFD|EGB eBG|FDF AFD|
EGB GBe|Beg egb|dcB A2G|FDF AFD:|

